X:5
T:An Taisdeal Gaidhealach
Z:Jack Campin, http://www.campin.me.uk/
B:Captain Eoghan Anderson: Measan Milis as an Lios (The Sweet Lapdog of Lismore), 1925
F:http://www.campin.me.uk/Music/Lismore.abc
I:last edit 17-12-2013
M:6/8
L:1/8
Q:3/8=80
K:CMin
B,|E>EE EFG|B>cB B2
B |c>dc cBG|F>GF E2
e |edc  cBc|e>cB c2
C |CB,C EFG|FGE  C2|]

